public/LayoutDashboard.svg

<svg width="110" height="112" viewBox="0 0 110 112" fill="none" xmlns="http://www.w3.org/2000/svg">
<path d="M54.9991 74.667V93.3337M54.9991 93.3337H68.6241M54.9991 93.3337H41.3741M45.9158 18.667L36.8325 74.667M64.0824 18.667L73.1658 74.667M93.6033 46.667H16.395M71.6897 18.667H38.3085C31.6595 18.667 28.335 18.667 25.7644 20.5943C23.1893 22.517 21.9494 25.9283 19.4833 32.7463L15.4276 43.9463C10.3863 57.867 7.8657 64.825 10.8859 69.7437C13.897 74.667 20.6868 74.667 34.2573 74.667H75.7409C89.3114 74.667 96.0967 74.667 99.1169 69.7437C102.133 64.825 99.6119 57.867 94.5707 43.9463L90.515 32.7463C88.0443 25.9283 86.809 22.517 84.2338 20.5943C81.6678 18.667 78.3387 18.667 71.6897 18.667Z" stroke="#265597" stroke-width="6" stroke-linecap="round" stroke-linejoin="round"/>
</svg>

<svg xmlns="http://www.w3.org/2000/svg" width="110" height="112" fill="none" viewBox="0 0 110 112"><path stroke="#265597" stroke-linecap="round" stroke-linejoin="round" stroke-width="6" d="M55 74.667v18.667m0 0h13.624m-13.625 0H41.374m4.542-74.667-9.083 56m27.25-56 9.083 56m20.437-28H16.395m55.295-28H38.309c-6.65 0-9.974 0-12.545 1.927-2.575 1.923-3.815 5.334-6.28 12.152l-4.056 11.2c-5.042 13.921-7.562 20.879-4.542 25.798 3.011 4.923 9.8 4.923 23.371 4.923h41.484c13.57 0 20.356 0 23.376-4.923 3.016-4.919.495-11.877-4.546-25.798l-4.056-11.2c-2.47-6.818-3.706-10.229-6.281-12.152-2.566-1.927-5.895-1.927-12.544-1.927"/></svg>
